!!!!SEGMENT: pl-kk--kk-i-15--009_asola-giovanni-matteo--iste-sanctus-pro-lege-dei.krn
!!!cenid: 16xx:1126
!!!COM: Asola, Giovanni Matteo
!!!COM-rismID:
!!!CDT: <=1532-1609/10/01
!!!CNT: Italian
!!!OTL: Iste sanctus pro lege Dei
!!!PDT:
!!!AGN: Sacred
!!!SMS-siglum: PL-Kk
!!!SMS-shelfmark: Kk.I.15
!!!SMS-shelfwork: 009 W
!!!SMS-variant:
!!!SMS-altvar:
!!!NIFC-rismSourceID: 1001146843
!!!NIFC-islandoraID: pl-kk:2631
!!!URL-pdf-islandora: https://repozytorium.nifc.pl/islandora/object/pl-kk%3A2631/datastream/PDF/view
!!!URL-scan: https://polish.musicsources.pl/pl/lokalizacje/galeria/rekopisy/5777 @EN{Scan on Polish Music Herritage in Open Access Website} @PL{Skany w portalu Dziedzictwo Muzyki Polskiej w otwartym dostępie}
!!!ONB-nifc: UWAGA: C (skan 0006-0007), A (skan 0024-0025), T (skan 0041-0042), B (skan 0059-0060). Następny motet: Sancti mei qui in carne positi
!!!AIN: 1 alto 1 empty 1 tenor 1 vox
!!!key:
**kern	**text	**kern	**text	**kern	**text	**kern	**text
*part4	*part4	*part3	*part3	*part2	*part2	*part1	*part1
*staff4	*staff4	*staff3	*staff3	*staff2	*staff2	*staff1	*staff1
*Iempty	*	*Itenor	*	*Ialto	*	*Ivox	*
*I"Baſso	*	*I"Tenore.	*	*I"Alto	*	*I"Canto.	*
*I'B	*	*I'T	*	*I'A	*	*I'S	*
*clefF3	*	*clefC4	*	*clefC3	*	*clefC2	*
*k[]	*	*k[]	*	*k[]	*	*k[]	*
*a:	*	*a:	*	*a:	*	*a:	*
*M2/2	*	*M2/2	*	*M2/2	*	*M2/2	*
*met(C|)	*	*met(C|)	*	*met(C|)	*	*met(C|)	*
*all\right	*	*all\right	*	*all\right	*	*all\right	*
*	*	*	*	*2\right	*	*	*
!LO:TX:t=P:problem=kreska pseudotaktowa	!	!LO:TX:a:t=7.	!	!LO:TX:b:t=P:problem=Inicjał I przed kluczem	!	!LO:TX:t=P:problem=kreska pseudotaktowa	!
0r	.	00r	.	1.e	I-	00r	.
!	!	!	!	!LO:TX:t=P:problem=kreska pseudotaktowa	!	!	!
.	.	.	.	2d\	-ste	.	.
=1-	=1-	=1-	=1-	=1-	=1-	=1-	=1-
!LO:TX:b:t=P:problem=Inicjał I przed kluczem	!	!	!	!	!	!	!
1.A	I-	.	.	1c	San-	.	.
!	!	!	!	!LO:TX:t=P:problem=kreska pseudotaktowa	!	!	!
.	.	.	.	1B	-ctus	.	.
*2\right	*	*	*	*	*	*	*
!LO:TX:t=P:problem=kreska pseudotaktowa	!	!	!	!	!	!	!
2G\	-ste	.	.	.	.	.	.
=2-	=2-	=2-	=2-	=2-	=2-	=2-	=2-
!	!	!	!	!	!	!LO:TX:b:t=P:problem=Inicjał I przed kluczem	!
1F	San-	0r	.	2r	.	1.a	I-
.	.	.	.	2A/	pro	.	.
!LO:TX:t=P:problem=kreska pseudotaktowa	!	!	!	!	!	!	!
1E	-ctus	.	.	2B/	le-	.	.
*	*	*	*	*	*	*2\right	*
!	!	!	!	!LO:TX:t=P:problem=kreska pseudotaktowa	!	!LO:TX:t=P:problem=kreska pseudotaktowa	!
.	.	.	.	2c/	-ge	2g\	-ste
=3-	=3-	=3-	=3-	=3-	=3-	=3-	=3-
!	!	!LO:TX:t=P:problem=kreska pseudotaktowa	!	!	!	!	!
0r	.	1r	.	1.d	DE-	1f	San-
!	!	!LO:TX:b:t=P:problem=Inicjał I przed kluczem	!	!	!	!LO:TX:t=P:problem=kreska pseudotaktowa	!
.	.	1.A	I-	.	.	1e	-ctus
!	!	!	!	!LO:TX:t=P:problem=kreska pseudotaktowa	!	!	!
.	.	.	.	2c/	-i	.	.
=4-	=4-	=4-	=4-	=4-	=4-	=4-	=4-
!LO:TX:t=P:problem=kreska pseudotaktowa	!	!	!	!	!	!	!
1r	.	.	.	1B	ſu-	2r	.
*	*	*	*	*	*	*	*ij
!	!	!LO:TX:t=P:problem=kreska pseudotaktowa	!	!	!	!	!
.	.	2G/	-ste	.	.	1e	I-
*	*ij	*	*	*	*	*	*
!	!	!	!	!LO:TX:t=P:problem=kreska pseudotaktowa	!	!	!
1.A	I-	1F	San-	1A	-i	.	.
!	!	!	!	!	!	!LO:TX:t=P:problem=kreska pseudotaktowa	!
.	.	.	.	.	.	2d/	-ste
=5-	=5-	=5-	=5-	=5-	=5-	=5-	=5-
!	!	!LO:TX:t=P:problem=kreska pseudotaktowa	!	!	!	!	!
.	.	1E	-ctus	2r	.	4c/	San-
.	.	.	.	.	.	4B/	.
!	!	!	!	!LO:TX:t=P:problem=kreska pseudotaktowa	!	!	!
2G\	-ste	.	.	2B/	pro	1e	.
*lig	*	*	*	*	*	*	*
1F	San-	2rG	.	2c/	le-	.	.
!	!	!	!	!LO:TX:t=P:problem=kreska pseudotaktowa	!	!LO:TX:t=P:problem=kreska pseudotaktowa	!
.	.	2A/	pro	2A/	-ge	2d/	.
=6-	=6-	=6-	=6-	=6-	=6-	=6-	=6-
!	!	!	!	!	!	!LO:TX:t=P:problem=kreska pseudotaktowa	!
1E	.	2A/	le-	2c/	DE-	1e	-ctus
*	*	*	*	*	*	*	*Xij
*	*	*	*	*custos:A	*	*	*
!	!	!LO:TX:t=P:problem=kreska pseudotaktowa	!	!LO:TX:t=P:problem=kreska pseudotaktowa	!	!	!
.	.	2G/	-ge	2B/	-i	.	.
*Xlig	*	*2\right	*	*	*	*	*
!LO:TX:t=P:problem=kreska pseudotaktowa	!	!	!	!LO:LB:g=original	!	!	!
1AA	-ctus	2.c\	DE-	2.A/	.	2r	.
*	*Xij	*	*	*	*	*	*
!	!	!	!	!	!	!LO:TX:t=P:problem=kreska pseudotaktowa	!
.	.	.	.	.	.	2e/	pro
.	.	4B\	.	4B/	.	.	.
=7-	=7-	=7-	=7-	=7-	=7-	=7-	=7-
0r	.	2A/	-o	4c/	.	2f\	le-
.	.	.	.	4d/	.	.	.
*	*	*	*	*	*	*custos:a	*
!	!	!	!	!	!	!LO:TX:t=P:problem=kreska pseudotaktowa	!
!	!	!LO:TX:t=P:problem=kreska pseudotaktowa	!	!	!	!	!
.	.	2G/	.	1e	.	2g\	-ge
!	!	!	!	!	!	!LO:LB:g=original	!
.	.	1F	ſu-	.	.	1.a	DE-
!	!	!	!	!LO:TX:t=P:problem=kreska pseudotaktowa	!	!	!
.	.	.	.	2d\	ſu-	.	.
=8-	=8-	=8-	=8-	=8-	=8-	=8-	=8-
!	!	!LO:TX:a:t=P:global:problem=rozdzielacz słów	!	!LO:TX:t=P:problem=kreska pseudotaktowa	!	!	!
2r	.	2E,</	-i	1e	-i	.	.
*	*	*	*ij	*	*	*	*
!	!	!LO:TX:t=P:problem=kreska pseudotaktowa	!	!	!	!LO:TX:t=P:problem=kreska pseudotaktowa	!
2E/	pro	2G/	pro	.	.	2g\	-i
2F/	le-	2A/	le-	0r	.	1f	Su-
*custos:A	*	*custos:c	*	*	*	*	*
!LO:TX:t=P:problem=kreska pseudotaktowa	!	!	!	!	!	!	!
2G\	-ge	2B\	-ge	.	.	.	.
!	!	!LO:LB:g=original	!	!	!	!	!
!LO:LB:g=original	!	!	!	!	!	!	!
=9-	=9-	=9-	=9-	=9-	=9-	=9-	=9-
!	!	!	!	!	!	!LO:TX:a:t=P:global:problem=rozdzielacz słów	!
1.A	DE-	1.c	DE-	.	.	2e,</	-i
*	*	*	*	*	*	*	*ij
!	!	!	!	!	!	!LO:TX:t=P:problem=kreska pseudotaktowa	!
.	.	.	.	.	.	2e/	pro
.	.	.	.	2r	.	2f\	le-
*	*	*	*	*	*ij	*	*
!LO:TX:t=P:problem=kreska pseudotaktowa	!	!LO:TX:t=P:problem=kreska pseudotaktowa	!	!LO:TX:t=P:problem=kreska pseudotaktowa	!	!LO:TX:t=P:problem=kreska pseudotaktowa	!
2G\	-i	2B\	-o	2B/	pro	2g\	-ge
=10-	=10-	=10-	=10-	=10-	=10-	=10-	=10-
1F	ſu-	1A	ſu-	2c/	le-	1.a	De-
.	.	.	.	2d\	-ge	.	.
!LO:TX:t=P:problem=kreska pseudotaktowa	!	!LO:TX:t=P:problem=kreska pseudotaktowa	!	!	!	!	!
1E	-i	1B	-i	1.e	DE-	.	.
!	!	!	!	!	!	!LO:TX:t=P:problem=kreska pseudotaktowa	!
.	.	.	.	.	.	2g\	-i
=11-	=11-	=11-	=11-	=11-	=11-	=11-	=11-
1r	.	00r	.	.	.	2.f\	Su-
!	!	!	!	!LO:TX:t=P:problem=kreska pseudotaktowa	!	!	!
.	.	.	.	2d\	-i	.	.
.	.	.	.	.	.	8e/L	.
!	!	!	!	!	!	!LO:TX:t=P:problem=kreska pseudotaktowa	!
.	.	.	.	.	.	8d/J	.
2r	.	.	.	2.c/	ſu-	2e/	-i
*	*ij	*	*	*	*	*	*
!LO:TX:t=P:problem=kreska pseudotaktowa	!	!	!	!	!	!	!
2C/	pro	.	.	.	.	1a\	Su-
.	.	.	.	8B/L	.	.	.
.	.	.	.	8A/J	.	.	.
=12-	=12-	=12-	=12-	=12-	=12-	=12-	=12-
!	!	!	!	!LO:TX:t=P:problem=kreska pseudotaktowa	!	!	!
2D/	le-	.	.	1B	.	.	.
!LO:TX:t=P:problem=kreska pseudotaktowa	!	!	!	!	!	!	!
2E/	-ge	.	.	.	.	2g\	.
!	!	!	!	!LO:TX:a:t=P:global:problem=rozdzielacz słów	!	!LO:TX:t=P:problem=kreska pseudotaktowa	!
1.F	DE-	.	.	2A,</	-i	1a	-i
*	*	*	*	*	*	*	*Xij
!	!	!	!	!LO:TX:t=P:problem=kreska pseudotaktowa	!	!	!
.	.	.	.	2c/	pro	.	.
=13-	=13-	=13-	=13-	=13-	=13-	=13-	=13-
.	.	2r	.	2d\	le-	0r	.
*	*	*	*	*custos:f	*	*	*
!	!	!	!	!LO:TX:t=P:problem=kreska pseudotaktowa	!	!	!
!LO:TX:t=P:problem=kreska pseudotaktowa	!	!LO:TX:t=P:problem=kreska pseudotaktowa	!	!	!	!	!
2E/	-i	2G/	pro	2e\	-ge	.	.
!	!	!	!	!LO:LB:g=original	!	!	!
1D	ſu-	2A/	le-	1.f	DE-	.	.
.	.	2B\	-ge	.	.	.	.
=14-	=14-	=14-	=14-	=14-	=14-	=14-	=14-
!LO:TX:t=P:problem=kreska pseudotaktowa	!	!	!	!	!	!LO:TX:t=P:problem=kreska pseudotaktowa	!
1C	-i	1.c	DE-	.	.	1r	.
*	*Xij	*	*	*	*	*	*
!	!	!	!	!LO:TX:t=P:problem=kreska pseudotaktowa	!	!	!
.	.	.	.	2e\	-i	.	.
2r	.	.	.	1d	ſu-	2r	.
*	*	*	*	*	*	*custos:f	*
!	!	!	!	!	!	!LO:TX:t=P:problem=kreska pseudotaktowa	!
!LO:TX:t=P:problem=kreska pseudotaktowa	!	!LO:TX:t=P:problem=kreska pseudotaktowa	!	!	!	!	!
2G\	cer-	2B\	-o	.	.	2g\	cer-
!	!	!	!	!	!	!LO:LB:g=original	!
=15-	=15-	=15-	=15-	=15-	=15-	=15-	=15-
!	!	!	!	!LO:TX:t=P:problem=kreska pseudotaktowa	!	!	!
2A\	-ta-	1A	ſu-	1c	-i	4f\	-ta-
*	*	*	*	*	*Xij	*	*
.	.	.	.	.	.	4e\	.
2.c\	.	.	.	.	.	4e\	.
.	.	.	.	.	.	8d\L	.
!	!	!	!	!	!	!LO:TX:t=P:problem=kreska pseudotaktowa	!
.	.	.	.	.	.	8c\J	.
!	!	!LO:TX:t=P:problem=kreska pseudotaktowa	!	!	!	!	!
.	.	1G	-i	2r	.	2d/	.
*	*	*	*Xij	*	*	*	*
8B\L	.	.	.	.	.	.	.
8A\J	.	.	.	.	.	.	.
*custos:c	*	*	*	*	*	*	*
!LO:TX:t=P:problem=kreska pseudotaktowa	!	!	!	!	!	!	!
2B\	.	.	.	2d\	cer-	2.g\	.
!LO:PB:g=original	!	!	!	!	!	!	!
=16-	=16-	=16-	=16-	=16-	=16-	=16-	=16-
2c\	.	2r	.	2e\	-ra-	.	.
.	.	.	.	.	.	8f\L	.
.	.	.	.	.	.	8e\J	.
!	!	!LO:TX:t=P:problem=kreska pseudotaktowa	!	!	!	!LO:TX:t=P:problem=kreska pseudotaktowa	!
2A\	.	2c\	cer-	2.c/	.	2f\	.
!LO:TX:t=P:problem=kreska pseudotaktowa	!	!	!	!	!	!LO:TX:t=P:problem=kreska pseudotaktowa	!
1G	-uit	2d\	-ta-	.	.	0.g	-uit
.	.	.	.	8B/L	.	.	.
.	.	.	.	8A/J	.	.	.
!	!	!	!	!LO:TX:t=P:problem=kreska pseudotaktowa	!	!	!
.	.	2.e\	.	2B/	-uit	.	.
=17-	=17-	=17-	=17-	=17-	=17-	=17-	=17-
2rD	.	.	.	1c	.	.	.
.	.	4d\	.	.	.	.	.
2C/	Vs-	2.c\	.	.	.	.	.
!LO:TX:t=P:problem=kreska pseudotaktowa	!	!	!	!	!	!	!
1G	-que	.	.	2r	.	.	.
.	.	8B\L	.	.	.	.	.
.	.	8A\J	.	.	.	.	.
*	*	*	*	*	*ij	*	*
*	*	*custos:c	*	*	*	*	*
!	!	!LO:TX:t=P:problem=kreska pseudotaktowa	!	!	!	!	!
!	!	!	!	!LO:TX:t=P:problem=kreska pseudotaktowa	!	!	!
.	.	2B\	.	2d\	cer-	.	.
!	!	!LO:LB:g=original	!	!	!	!	!
=18-	=18-	=18-	=18-	=18-	=18-	=18-	=18-
!	!	!LO:TX:t=P:problem=kreska pseudotaktowa	!	!	!	!	!
2E/	ad	1c	-uit	2e\	-ta-	2r	.
*	*	*	*	*	*	*	*ij
!	!	!	!	!LO:TX:t=P:problem=kreska pseudotaktowa	!	!	!
2F/	Mor-	.	.	2A/	-uit	2c/	cer-
*	*	*	*	*	*Xij	*	*
2D/	.	2r	.	2B/	Vs-	2d/	-ta-
!LO:TX:t=P:problem=kreska pseudotaktowa	!	!LO:TX:t=P:problem=kreska pseudotaktowa	!	!	!	!LO:TX:t=P:problem=kreska pseudotaktowa	!
2C/	.	2c\	cer-	1c\	-q(ue)	2e/	-uit
*	*	*	*	*	*	*	*Xij
=19-	=19-	=19-	=19-	=19-	=19-	=19-	=19-
1D	.	2A/	-ta-	.	.	1.f	Vs-
!	!	!	!	!LO:TX:t=P:problem=kreska pseudotaktowa	!	!	!
.	.	4G/	.	2B/	ad	.	.
!	!	!LO:TX:t=P:problem=kreska pseudotaktowa	!	!	!	!	!
.	.	4F/	.	.	.	.	.
!LO:TX:t=P:problem=kreska pseudotaktowa	!	!	!	!	!	!	!
1C	-tem	2G/	.	1c	Mor-	.	.
!	!	!	!	!	!	!LO:TX:t=P:problem=kreska pseudotaktowa	!
.	.	2.c\	.	.	.	2e/	-q(ue)
=20-	=20-	=20-	=20-	=20-	=20-	=20-	=20-
*	*	*	*	*custos:c	*	*	*
!	!	!	!	!LO:TX:t=P:problem=kreska pseudotaktowa	!	!	!
2r	.	.	.	1G	-tem	2d/	ad
.	.	8B\L	.	.	.	.	.
.	.	8A\J	.	.	.	.	.
*	*ij	*	*	*	*	*	*
!LO:TX:t=P:problem=kreska pseudotaktowa	!	!	!	!	!	!	!
2G\	Vs-	2B\	.	.	.	1g	mor-
!	!	!LO:TX:t=P:problem=kreska pseudotaktowa	!	!LO:PB:g=original	!	!	!
1A	-que	1c	-uit	2rA	.	.	.
!	!	!	!	!LO:TX:t=P:problem=kreska pseudotaktowa	!	!	!
.	.	.	.	2c/	cer-	2f\	.
=21-	=21-	=21-	=21-	=21-	=21-	=21-	=21-
2G\	ad	2r	.	2e\	-ta-	1g	-tem
*	*	*	*ij	*	*	*	*
!LO:TX:t=P:problem=kreska pseudotaktowa	!	!	!	!	!	!	!
2c\	Mor-	2c\	cer-	4e,<\	-uit	.	.
*	*	*	*	*	*ij	*	*
!	!	!	!	!LO:TX:t=P:problem=kreska pseudotaktowa	!	!	!
.	.	.	.	4e\	cer-	.	.
!	!	!	!	!	!	!LO:TX:t=P:problem=brzeg karty urwany, brak jednej minimy lub pauzy o tej długości	!
2B\	.	2G/	-ta-	2d\	-ta-	2g\yy	.
!	!	!	!	!	!	!LO:PB:g=original	!
!	!	!	!	!	!	!LO:TX:t=P:problem=kreska pseudotaktowa	!
2A\	.	4A,</	-uit	4c,</	-uit	1r	.
!	!	!LO:TX:t=P:problem=kreska pseudotaktowa	!	!LO:TX:t=P:problem=kreska pseudotaktowa	!	!	!
.	.	4A/	cer-	4c/	cer-	.	.
=22-	=22-	=22-	=22-	=22-	=22-	=22-	=22-
*custos:C	*	*	*	*	*	*	*
!LO:TX:a:t=4	!	!	!	!	!	!	!
00G	.	2B\	-ta-	2d\	-ta-	.	.
!	!	!LO:TX:t=P:problem=kreska pseudotaktowa	!	!LO:TX:t=P:problem=kreska pseudotaktowa	!	!	!
.	.	2c\	-uit	2e\	-uit	1.g	Vs-
*	*	*	*Xij	*	*Xij	*	*
.	.	2d\	Vs-	2d\	Vs-	.	.
.	.	2e\	.	2c/	-que	.	.
=23-	=23-	=23-	=23-	=23-	=23-	=23-	=23-
!	!	!	!	!	!	!LO:TX:t=P:problem=kreska pseudotaktowa	!
.	.	2d\	-que	2B/	ad	2g\	-que
*	*	*custos:B	*	*	*	*	*
!	!	!	!	!LO:TX:t=P:problem=kreska pseudotaktowa	!	!	!
.	.	1c	ad	2e\	mor-	1g	ad
.	.	.	.	1d	.	.	.
!	!	!LO:LB:g=original	!	!	!	!	!
!	!	!LO:TX:t=P:problem=kreska pseudotaktowa	!	!	!	!	!
.	.	2B\	mor-	.	.	0g\	mor-
!LO:LB:g=original	!	!	!	!	!	!	!
=24-	=24-	=24-	=24-	=24-	=24-	=24-	=24-
!LO:TX:t=P:problem=kreska pseudotaktowa	!	!	!	!LO:TX:t=P:problem=kreska pseudotaktowa	!	!	!
0.C	-tem	1c	.	1e	-tem	.	.
*	*Xij	*	*	*	*	*	*
!	!	!LO:TX:t=P:problem=kreska pseudotaktowa	!	!	!	!	!
.	.	0G	-tem	2r	.	.	.
!	!	!	!	!LO:TX:t=P:problem=kreska pseudotaktowa	!	!LO:TX:t=P:problem=kreska pseudotaktowa	!
.	.	.	.	2c/	et	1e\	-tem
=25-	=25-	=25-	=25-	=25-	=25-	=25-	=25-
.	.	.	.	2e\	à	.	.
*	*	*	*	*custos:g	*	*	*
.	.	.	.	1g	Ver-	2rd	.
2r	.	1rA	.	.	.	2c/	et
!	!	!	!	!LO:LB:g=original	!	!	!
!	!	!	!	!LO:TX:t=P:problem=kreska pseudotaktowa	!	!	!
2C/	et	.	.	2g\	-bis	2e/	à
=26-	=26-	=26-	=26-	=26-	=26-	=26-	=26-
2E/	à	2rG	.	2e\	im-	1g	Ver-
!	!	!LO:TX:t=P:problem=kreska pseudotaktowa	!	!LO:TX:t=P:problem=kreska pseudotaktowa	!	!	!
1G	Ver-	2G/	et	2e\	-pi-	.	.
!	!	!	!	!	!	!LO:TX:t=P:problem=kreska pseudotaktowa	!
.	.	2B\	à	2.d\	-o-	2g\	-bis
!LO:TX:t=P:problem=kreska pseudotaktowa	!	!	!	!	!	!	!
2G\	-bis	1d\	Ver-	.	.	2g\	im-
.	.	.	.	4c/	.	.	.
=27-	=27-	=27-	=27-	=27-	=27-	=27-	=27-
2G\	im-	.	.	4B/	.	2g\	-pi-
.	.	.	.	4A/	.	.	.
!	!	!LO:TX:t=P:problem=kreska pseudotaktowa	!	!	!	!LO:TX:t=P:problem=kreska pseudotaktowa	!
2G\	-pi-	2d\	-bis	1B	.	1g	-o-
1G	-o-	2d\	im-	.	.	.	.
!	!	!	!	!LO:TX:t=P:problem=kreska pseudotaktowa	!	!	!
.	.	2d\	-pi-	2G/	-rum	2d/	-rum
=28-	=28-	=28-	=28-	=28-	=28-	=28-	=28-
!LO:TX:t=P:problem=kreska pseudotaktowa	!	!	!	!	!	!	!
1D	-rum	1d	-o-	2A/	non	2g\	non
.	.	.	.	1d	ti-	2.f\	.
!	!	!LO:TX:t=P:problem=kreska pseudotaktowa	!	!	!	!	!
2r	.	1A	-rum	.	.	.	.
!	!	!	!	!	!	!LO:TX:t=P:problem=kreska pseudotaktowa	!
.	.	.	.	.	.	4g\	.
!LO:TX:t=P:problem=kreska pseudotaktowa	!	!	!	!	!	!	!
2A\	et	.	.	2c/	-mu-	4a\	.
*	*	*	*	*	*	*custos:a	*
.	.	.	.	.	.	4b\	.
!	!	!	!	!	!	!LO:LB:g=original	!
=29-	=29-	=29-	=29-	=29-	=29-	=29-	=29-
!	!	!	!	!LO:TX:t=P:problem=kreska pseudotaktowa	!	!	!
2F/	à	2r	.	0d	-it	2.a\	.
1G	Ver-	1B	non	.	.	.	.
.	.	.	.	.	.	4g\	.
.	.	.	.	.	.	1g	ti-
!LO:TX:t=P:problem=kreska pseudotaktowa	!	!	!	!	!	!	!
2D/	-bis	2.d\	ti-	.	.	.	.
=30-	=30-	=30-	=30-	=30-	=30-	=30-	=30-
2E/	im-	.	.	1r	.	2f\	-mu-
.	.	4c\	.	.	.	.	.
!	!	!	!	!	!	!LO:TX:t=P:problem=kreska pseudotaktowa	!
2E/	-pi-	1c	-mu-	.	.	1g	-it
1D	-o-	.	.	2r	.	.	.
!	!	!LO:TX:t=P:problem=kreska pseudotaktowa	!	!LO:TX:t=P:problem=kreska pseudotaktowa	!	!	!
.	.	2B\	.	2d\	et	1r	.
=31-	=31-	=31-	=31-	=31-	=31-	=31-	=31-
*custos:C	*	*	*	*	*	*	*
!LO:TX:t=P:problem=kreska pseudotaktowa	!	!	!	!	!	!	!
!	!	!LO:TX:t=P:problem=kreska pseudotaktowa	!	!	!	!	!
1C	-rum	0c	-it	2e\	à	.	.
.	.	.	.	1g	Ver-	2r	.
*	*	*	*	*	*	*	*ij
!LO:LB:g=original	!	!	!	!	!	!LO:TX:t=P:problem=kreska pseudotaktowa	!
2rD	.	.	.	.	.	2c/	et
*	*ij	*	*	*	*	*	*
!LO:TX:t=P:problem=kreska pseudotaktowa	!	!	!	!LO:TX:t=P:problem=kreska pseudotaktowa	!	!	!
2C/	et	.	.	2g\	-bis	2e/	à
=32-	=32-	=32-	=32-	=32-	=32-	=32-	=32-
2E/	à	2r	.	2e\	im-	1g	Ver-
*	*	*custos:B	*	*custos:d	*	*	*
1G	Ver-	2G/	et	2e\	-pi-	.	.
!	!	!LO:LB:g=original	!	!LO:LB:g=original	!	!LO:TX:t=P:problem=kreska pseudotaktowa	!
.	.	2B\	à	2.d\	-o-	2g\	-bis
!LO:TX:t=P:problem=kreska pseudotaktowa	!	!	!	!	!	!	!
2G\	-bis	1d\	Ver-	.	.	2g\	im-
!	!	!	!	!LO:TX:t=P:problem=kreska pseudotaktowa	!	!	!
.	.	.	.	4c/	.	.	.
=33-	=33-	=33-	=33-	=33-	=33-	=33-	=33-
!	!	!	!	!	!	!LO:TX:t=P:problem=kreska pseudotaktowa	!
2G\	im-	.	.	4B/	.	1g	-pi-
.	.	.	.	4A/	.	.	.
!	!	!LO:TX:t=P:problem=kreska pseudotaktowa	!	!	!	!	!
2G\	-pi-	2d\	-bis	1B	.	.	.
1G	-o-	2d\	im-	.	.	2d/	-o-
!	!	!	!	!LO:TX:t=P:problem=kreska pseudotaktowa	!	!LO:TX:t=P:problem=kreska pseudotaktowa	!
.	.	2d\	-pi-	2G/	-rum	2g\	-rum
=34-	=34-	=34-	=34-	=34-	=34-	=34-	=34-
!LO:TX:t=P:problem=kreska pseudotaktowa	!	!	!	!	!	!	!
1D	-rum	1d	-o-	2A/	.	2.f\	non
*	*Xij	*	*	*	*	*	*
.	.	.	.	2.f\	non	.	.
.	.	.	.	.	.	4g\	.
1F	non	2A,</	-rum	.	.	4a\	.
*	*	*	*	*	*	*custos:a	*
.	.	.	.	4e\	.	4b\	.
!	!	!LO:TX:t=P:problem=kreska pseudotaktowa	!	!	!	!LO:LB:g=original	!
.	.	2A/	non	1d\	ti-	2.a\	.
=35-	=35-	=35-	=35-	=35-	=35-	=35-	=35-
2.E/	ti-	2B\	ti-	.	.	.	.
.	.	.	.	.	.	4g\	.
!	!	!	!	!LO:TX:t=P:problem=kreska pseudotaktowa	!	!	!
.	.	4A/	.	2c/	-mu-	1g	ti-
!LO:TX:t=P:problem=kreska pseudotaktowa	!	!	!	!	!	!	!
4E/	-mu-	4G/	.	.	.	.	.
!	!	!	!	!LO:TX:t=P:problem=kreska pseudotaktowa	!	!	!
1D	-it	2.A/	-mu-	0d	-it	.	.
!	!	!	!	!	!	!LO:TX:t=P:problem=kreska pseudotaktowa	!
.	.	.	.	.	.	2f\	-mu-
!	!	!LO:TX:t=P:problem=kreska pseudotaktowa	!	!	!	!	!
.	.	4A/	-it	.	.	.	.
=36-	=36-	=36-	=36-	=36-	=36-	=36-	=36-
!	!	!	!	!	!	!LO:TX:t=P:problem=kreska pseudotaktowa	!
2r	.	1G	.	.	.	1g,<	-it
*	*	*	*	*	*	*	*Xij
!LO:TX:t=P:problem=kreska pseudotaktowa	!	!	!	!	!	!	!
2G\	fun-	.	.	.	.	.	.
1A	-da-	00r	.	2r	.	2e/	fun-
.	.	.	.	2c/	fun-	1f\	-da-
=37-	=37-	=37-	=37-	=37-	=37-	=37-	=37-
!	!	!	!	!LO:TX:t=P:problem=kreska pseudotaktowa	!	!	!
2F/	-tus	.	.	1d	-da-	.	.
!	!	!	!	!	!	!LO:TX:t=P:problem=kreska pseudotaktowa	!
1G	e-	.	.	.	.	2d/	-tus
.	.	.	.	2B/	-tus	1e	e-
*custos:F	*	*	*	*	*	*	*
!LO:TX:t=P:problem=kreska pseudotaktowa	!	!	!	!	!	!	!
2E/	-nim	.	.	1c\	e-	.	.
!LO:LB:g=original	!	!	!	!	!	!	!
=38-	=38-	=38-	=38-	=38-	=38-	=38-	=38-
1F	e-	.	.	.	.	2c/	-nim
!	!	!	!	!LO:TX:t=P:problem=kreska pseudotaktowa	!	!	!
.	.	.	.	2A/	-nim	1f	e-
!LO:TX:t=P:problem=kreska pseudotaktowa	!	!	!	!	!	!	!
1C	-rat	2r	.	1c	e-	.	.
!	!	!LO:TX:t=P:problem=kreska pseudotaktowa	!	!	!	!LO:TX:t=P:problem=kreska pseudotaktowa	!
.	.	2c\	fun-	.	.	2e/	-rat
=39-	=39-	=39-	=39-	=39-	=39-	=39-	=39-
*	*	*	*	*custos:g	*	*	*
!	!	!	!	!LO:TX:t=P:problem=kreska pseudotaktowa	!	!	!
1rF	.	1d	-da-	0A	-rat	1.g	ſu-
2rE	.	2B\	-tus	.	.	.	.
*	*ij	*	*	*	*	*	*
!LO:TX:t=P:problem=kreska pseudotaktowa	!	!	!	!	!	!LO:TX:t=P:problem=kreska pseudotaktowa	!
2C/	fun-	1c\	e-	.	.	2e/	-pra
!	!	!	!	!LO:LB:g=original	!	!	!
=40-	=40-	=40-	=40-	=40-	=40-	=40-	=40-
1F	-da-	.	.	1r	.	2f\	fir-
!	!	!LO:TX:t=P:problem=kreska pseudotaktowa	!	!	!	!	!
.	.	2A/	-nim	.	.	2f\	-mam
*	*	*custos:G	*	*	*	*	*
2C/	-tus	1c	e-	2r	.	1e	Pe-
1c\	e-	.	.	1g\	ſu-	.	.
!	!	!LO:LB:g=original	!	!	!	!	!
=41-	=41-	=41-	=41-	=41-	=41-	=41-	=41-
*	*	*	*	*	*	*custos:g	*
!	!	!	!	!	!	!LO:TX:t=P:problem=kreska pseudotaktowa	!
!	!	!LO:TX:t=P:problem=kreska pseudotaktowa	!	!	!	!	!
.	.	1G	-rat	.	.	1d	-tram
!LO:TX:t=P:problem=kreska pseudotaktowa	!	!	!	!LO:TX:t=P:problem=kreska pseudotaktowa	!	!	!
2B\	-nim	.	.	2d\	-pra	.	.
!	!	!	!	!	!	!LO:LB:g=original	!
1A	e-	0r	.	2e\	fir-	1r	.
!	!	!	!	!LO:TX:t=P:problem=kreska pseudotaktowa	!	!	!
.	.	.	.	2f\	-mam	.	.
=42-	=42-	=42-	=42-	=42-	=42-	=42-	=42-
!LO:TX:a:t=P:global:problem=rozdzielacz słów	!	!	!	!	!	!	!
2G,<\	-rat	.	.	2.g\	Pe-	2r	.
*	*	*	*	*	*	*	*ij
!	!	!	!	!	!	!LO:TX:t=P:problem=kreska pseudotaktowa	!
1c	fun-	.	.	.	.	2g\	fun-
.	.	.	.	4f\	.	.	.
.	.	1r	.	2e\	.	1a	-da-
1d\	-da-	.	.	2f\	.	.	.
=43-	=43-	=43-	=43-	=43-	=43-	=43-	=43-
!	!	!	!	!LO:TX:t=P:problem=kreska pseudotaktowa	!	!	!
.	.	2r	.	1d	-tram	2f\	-tus
*	*	*	*ij	*	*	*	*
!LO:TX:t=P:problem=kreska pseudotaktowa	!	!LO:TX:t=P:problem=kreska pseudotaktowa	!	!	!	!	!
2B\	-tus	2d\	fun-	.	.	1g	e-
1c	e-	1e	-da-	0r	.	.	.
!	!	!	!	!	!	!LO:TX:t=P:problem=kreska pseudotaktowa	!
.	.	.	.	.	.	2e/	-nim
=44-	=44-	=44-	=44-	=44-	=44-	=44-	=44-
2A\	-nim	2c\	-tus	.	.	1f	e-
1B	e-	1d	e-	.	.	.	.
!	!	!	!	!LO:TX:t=P:problem=kreska pseudotaktowa	!	!	!
.	.	.	.	1r	.	2d/	-rat
!LO:TX:t=P:problem=kreska pseudotaktowa	!	!LO:TX:t=P:problem=kreska pseudotaktowa	!	!	!	!LO:TX:t=P:problem=kreska pseudotaktowa	!
2G\	-rat	2B\	-nim	.	.	2g\	fir-
*	*Xij	*	*	*	*	*	*
=45-	=45-	=45-	=45-	=45-	=45-	=45-	=45-
*custos:F	*	*	*	*	*	*	*
1A	ſu-	1c	e-	1e	fun-	2e/	-mam
.	.	.	.	.	.	1a	Pe-
!LO:LB:g=original	!	!	!	!	!	!	!
2F/	-pra	2A,</	-rat	2f\	-da-	.	.
*	*	*	*Xij	*	*	*	*
!	!	!	!	!LO:TX:t=P:problem=kreska pseudotaktowa	!	!LO:TX:t=P:problem=kreska pseudotaktowa	!
1G\	fir-	1Bn\	ſu-	2d\	-tus	2g\	.
=46-	=46-	=46-	=46-	=46-	=46-	=46-	=46-
.	.	.	.	2g\	e-	2d/	-tram
!LO:TX:t=P:problem=kreska pseudotaktowa	!	!LO:TX:t=P:problem=kreska pseudotaktowa	!	!	!	!	!
2C/	-mam	2c\	-pra	2e\	-nim	1g	Pe-
1D	pe-	2A/	fir-	1.d	e-	.	.
.	.	2A/	-mam	.	.	2f\	.
=47-	=47-	=47-	=47-	=47-	=47-	=47-	=47-
!LO:TX:t=P:problem=kreska pseudotaktowa	!	!	!	!	!	!LO:TX:t=P:problem=kreska pseudotaktowa	!
1G	-tram	1Bn	pe-	.	.	1g	-tram
*	*	*	*	*custos:B	*	*	*
!	!	!	!	!LO:TX:t=P:problem=kreska pseudotaktowa	!	!	!
.	.	.	.	2d\	-rat	.	.
!	!	!LO:TX:t=P:problem=kreska pseudotaktowa	!	!LO:LB:g=original	!	!	!
2r	.	1G	-tram	2.B/	ſu-	2r	.
*	*ij	*	*	*	*	*	*
*	*	*	*	*	*	*custos:g	*
!	!	!	!	!	!	!LO:TX:t=P:problem=kreska pseudotaktowa	!
1G\	ſu-	.	.	.	.	2g\	fun-
!	!	!	!	!LO:TX:t=P:problem=kreska pseudotaktowa	!	!	!
.	.	.	.	4c/	-pra	.	.
!	!	!	!	!	!	!LO:LB:g=original	!
=48-	=48-	=48-	=48-	=48-	=48-	=48-	=48-
.	.	2r	.	2d\	fir-	2g\	-da-
!	!	!	!	!LO:TX:t=P:problem=kreska pseudotaktowa	!	!LO:TX:t=P:problem=kreska pseudotaktowa	!
1A	-pra	1c	fun-	2c/	.	2e/	-tus
.	.	.	.	2A/	-mam	2a\	e-
*	*	*custos:B	*	*	*	*	*
!LO:TX:t=P:problem=kreska pseudotaktowa	!	!	!	!	!	!	!
2F/	.	1d\	-da-	2A/	Pe-	2a\	-nim
=49-	=49-	=49-	=49-	=49-	=49-	=49-	=49-
!	!	!	!	!LO:TX:t=P:problem=kreska pseudotaktowa	!	!	!
1G	fir-	.	.	1B	-tram	1.g	e-
!	!	!LO:PB:g=original	!	!	!	!	!
!	!	!LO:TX:t=P:problem=kreska pseudotaktowa	!	!	!	!	!
.	.	2B\	-tus	.	.	.	.
2E/	-mam	2c\	e-	2G/	.	.	.
!	!	!	!	!	!	!LO:TX:t=P:problem=kreska pseudotaktowa	!
1F\	pe-	1A\	-nim	2.c/	ſu-	2a\	-rat
=50-	=50-	=50-	=50-	=50-	=50-	=50-	=50-
.	.	.	.	.	.	2f\	fir-
.	.	.	.	4d\	-pra	.	.
!LO:TX:t=P:problem=kreska pseudotaktowa	!	!	!	!LO:TX:t=P:problem=kreska pseudotaktowa	!	!	!
2C/	-tram	1c	e-	2e\	fir-	2g\	-mam
1.F	ſu-	.	.	2A/	-mam	4a\	Pe-
.	.	.	.	.	.	4g\	.
*	*	*	*	*	*ij	*	*
!	!	!LO:TX:t=P:problem=kreska pseudotaktowa	!	!	!	!	!
.	.	2A/	-rat	2.c/	ſu-	4f\	.
!	!	!	!	!	!	!LO:TX:t=P:problem=kreska pseudotaktowa	!
.	.	.	.	.	.	4e\	.
=51-	=51-	=51-	=51-	=51-	=51-	=51-	=51-
.	.	2.c\	ſu-	.	.	2f\	.
.	.	.	.	4d\	-pra	.	.
!LO:TX:t=P:problem=kreska pseudotaktowa	!	!	!	!LO:TX:t=P:problem=kreska pseudotaktowa	!	!	!
2E/	-pra	.	.	2e\	fir-	2g,<\	-tram
*	*	*	*	*	*	*	*Xij
.	.	4B\	-pra	.	.	.	.
2F/	fir-	2A/	fir-	1d	-mam	2a\	fir-
*	*	*	*	*	*Xij	*	*
!	!	!LO:TX:t=P:problem=kreska pseudotaktowa	!	!	!	!LO:TX:t=P:problem=kreska pseudotaktowa	!
2G\	-mam	2B-X\	-mam	.	.	2g\	-mam
=52-	=52-	=52-	=52-	=52-	=52-	=52-	=52-
0D	pe-	2A/	.	0d	Pe-	2f\	Pe-
.	.	2G/	Pe-	.	.	1g	.
.	.	1A	.	.	.	.	.
.	.	.	.	.	.	2f\	.
=53-	=53-	=53-	=53-	=53-	=53-	=53-	=53-
0Gl;;	-tram	0Gl;;	-tram	0dl;;	-tram	0gl;;	-tram
*	*Xij	*	*	*	*	*	*
==	==	==	==	==	==	==	==
*-	*-	*-	*-	*-	*-	*-	*-
!!!system-decoration: [s1,s2,s3,s4]
!!!RDF**kern: < = below
!!!RDF**kern: l = terminal long
!!!ENC: Marta Lawrence
!!!END: 2021-03-27
!!!ENC: Mateusz Solarz
!!!END: 2021-03-22
